X: 16212
T: Greencastle, The
R: hornpipe
M: 4/4
K: Gmajor
|:dc|BGDG BGDG|(3gag fg e2dc|BGDG BGDG|dcBc A2dc|
BGDG B/c/d ef|gBfB eg d2|BGBd ecAF|1 GBAF G2:|2 GBAF G2 ga||
|:bagf efga|bge^c dcdg|b2 ag eg ~g2|afd^c d2 z2|
B/c/d gd BGDB|=cBAG FA D2|~g2 bg ecAF|1 GBAF G2 z a:|2 GBAF G4||

